src/icons/solid/symbols/strategies.svg

<svg width="24" height="24" viewBox="0 0 24 24" fill="none" xmlns="http://www.w3.org/2000/svg">
<g clip-path="url(#clip0_4787_693)">
<path d="M12.0107 23C12.6387 23 13.147 22.4899 13.147 21.8598V21.4797C13.147 17.8789 15.1804 14.5982 18.3999 13.0079C18.4597 12.9779 18.5295 12.9779 18.5793 13.0079C18.6391 13.0279 18.6889 13.0679 18.7188 13.1279L18.9481 13.688C19.0677 13.9881 19.3468 14.1981 19.6658 14.2481C19.9947 14.2881 20.3136 14.1581 20.513 13.8881L22.8155 10.8174C23.0148 10.5573 23.0547 10.2073 22.9251 9.8972C22.8055 9.59714 22.5364 9.38709 22.2174 9.33708L18.3999 8.81697C17.9015 8.74695 17.443 9.09703 17.3732 9.59713C17.3533 9.75717 17.3732 9.9172 17.433 10.0672L17.6424 10.5673C17.6922 10.6774 17.6424 10.8074 17.5228 10.8574C15.9977 11.5976 14.6422 12.6578 13.5557 13.9681C13.4959 14.0381 13.3962 14.0681 13.3065 14.0281C13.2168 13.9981 13.157 13.9181 13.147 13.818V6.69652C13.167 6.5865 13.2567 6.50648 13.3663 6.50648H14.1039C14.4428 6.50648 14.7618 6.32643 14.9212 6.02637C15.0907 5.72631 15.0907 5.36623 14.9212 5.06617L12.8081 1.43539C12.4992 0.975295 11.8812 0.865269 11.4227 1.17534C11.323 1.24535 11.2333 1.33537 11.1635 1.43539L9.05041 5.02616C8.88096 5.32622 8.88096 5.6863 9.05041 5.98637C9.20989 6.28643 9.52885 6.46647 9.86774 6.46647H10.6053C10.7349 6.46647 10.8346 6.56649 10.8346 6.69652V13.838C10.8346 13.9381 10.7648 14.0181 10.6751 14.0481C10.5854 14.0881 10.4857 14.0581 10.4259 13.9881C9.34943 12.6778 8.01379 11.6076 6.48877 10.8674C6.37913 10.8174 6.32929 10.6874 6.36916 10.5773L6.57848 10.0772C6.70806 9.77717 6.65822 9.4271 6.45887 9.15704C6.24956 8.88699 5.91066 8.75695 5.57177 8.81697L1.7941 9.34708C1.29573 9.41709 0.946864 9.8772 1.00667 10.3773C1.0266 10.5373 1.08641 10.6874 1.18608 10.8174L3.48857 13.848C3.79756 14.2481 4.3657 14.3281 4.7644 14.0281C4.89398 13.9281 4.99365 13.798 5.05346 13.648L5.28271 13.0879C5.31261 13.0279 5.36245 12.9879 5.42226 12.9679C5.48206 12.9378 5.55183 12.9378 5.60167 12.9679C8.80122 14.5682 10.8246 17.8489 10.8147 21.4397V21.8197C10.7947 22.4499 11.2931 22.98 11.921 23C11.931 23 11.941 23 11.9609 23H12.0107Z" fill="#3C3B44"/>
</g>
<defs>
<clipPath id="clip0_4787_693">
<rect width="24" height="24" fill="white"/>
</clipPath>
</defs>
</svg>

<svg xmlns="http://www.w3.org/2000/svg" width="24" height="24" fill="none" viewBox="0 0 24 24"><g clip-path="url(#a)"><path fill="currentColor" d="M12.01 23c.629 0 1.137-.51 1.137-1.14v-.38a9.44 9.44 0 0 1 5.253-8.472.19.19 0 0 1 .18 0c.06.02.109.06.139.12l.23.56c.119.3.398.51.717.56.329.04.648-.09.847-.36l2.302-3.07c.2-.26.24-.61.11-.92a.91.91 0 0 0-.708-.56L18.4 8.816a.91.91 0 0 0-.967 1.25l.21.5c.05.11 0 .24-.12.29-1.525.74-2.88 1.8-3.967 3.111-.06.07-.16.1-.25.06a.24.24 0 0 1-.159-.21v-7.12c.02-.11.11-.19.22-.19h.737c.339 0 .658-.18.817-.48a.97.97 0 0 0 0-.96l-2.113-3.632a.99.99 0 0 0-1.644 0L9.05 5.026a.97.97 0 0 0 0 .96c.16.3.479.48.818.48h.737c.13 0 .23.1.23.23v7.142c0 .1-.07.18-.16.21-.09.04-.19.01-.25-.06a11.7 11.7 0 0 0-3.936-3.12.234.234 0 0 1-.12-.29l.21-.5a.93.93 0 0 0-.12-.921.92.92 0 0 0-.887-.34l-3.778.53a.93.93 0 0 0-.787 1.03.9.9 0 0 0 .18.44l2.302 3.031c.309.4.877.48 1.275.18.13-.1.23-.23.29-.38l.229-.56c.03-.06.08-.1.14-.12a.19.19 0 0 1 .179 0 9.44 9.44 0 0 1 5.213 8.472v.38c-.02.63.478 1.16 1.106 1.18h.09"/></g><defs><clipPath id="a"><path fill="currentColor" d="M0 0h24v24H0z"/></clipPath></defs></svg>
